X:1
T:Union Maid
M:4/4
L:1/4
K:C
 G| C C/2C/2 C E| G3 E| F A c A| G3 E| FF/2-E/2 D F| E E/2D/2 C E|\
 D A, B, C| D B, A, G,| C C/2C/2 C E| G3 E/2E/2| F A c A| G3 E| F E D F|\
 E D C E| D A, B, G,| C2 c B| A2 A2| A c B/2B/2 A/2A/2| G2 E2-| E G A/2A/2 G/2G/2|\
 G2 D2-| D G A/2A/2 G/2G/2| G2 E2| z2 c B| A2 A2| A c B/2B/2 A/2A/2|\
 G2 E2-| E G A/2A/2 G/2G/2| G2 D2-| D F/2F/2 E D| C4-| C z||
